**kern	**kern	**dynam
*part1	*part1	*part1
*staff2	*staff1	*
*I"Piano	*	*
*clefF4	*clefG2	*
*k[f#c#]	*k[f#c#]	*
=1	=1	=1
*^	*	*
(4G#X	2GG#X)	(12BL	.
.	.	12e#X	.
.	.	12c#J	.
4C#	.	12bL	.
.	.	12e#	.
.	.	12c#J)	.
=	=	=	=
2A)	(2AA	(12c#L	.
.	.	12gn	.
.	.	12enJ	.
.	.	12cc#L	.
.	.	12g	.
.	.	12eJ)	.
=	=	=	=
(4A#X	2AA#X)	(12c#L	mf
.	.	12f##X	.
.	.	12d#XJ	.
4D#X	.	12cc#L	.
.	.	12f##	.
.	.	12d#J)	.
=	=	=	=
2B)	(2BB	(12d#XL	.
.	.	12an	.
.	.	12f#XJ	.
.	.	12dd#XL	.
.	.	12a	.
.	.	12f#J	.
*v	*v	*	*
=	=	=
!	!	!LO:DY:a
8Cn^L) 8cn	8e-XL) 8fn 8a 8ee-X	f
8C^ 8Fn 8c	8e-^ 8f 8a	f
!	!LO:TX:b:i:t=cresc.	!
8C^ 8F 8c	8e-^ 8f 8a	.
8C^J 8F 8c	8e-^J 8f 8a	.
=	=	=
8BB^L 8Fn 8B	8e-X^L 8fn 8a	f
8BB^ 8F 8B	8e-^ 8f 8a	f
8BB^ 8F 8B	8e-^ 8f 8a-X	f
8BB^J 8F 8B	8e-^J 8f 8a-	.
=	=	=
8BB^L 8Fn 8B	8d^L 8fn 8g#X	f
8BB^ 8B	8d^ 8f 8g#	f
8BB-X^ 8B-X	8d^ 8f 8g#	f
8BB-^J 8B-	8d^J 8f 8g#	f
=	=	=
*-	*-	*-
!!!system-decoration: {(s1,s2)}
